icons/1_Primary/Topicbox.svg

<svg width="1024" height="1024" viewBox="0 0 1024 1024" fill="none" xmlns="http://www.w3.org/2000/svg">
<g clip-path="url(#clip0_2_3687)">
<path d="M512 1024C794.77 1024 1024 794.77 1024 512C1024 229.23 794.77 0 512 0C229.23 0 0 229.23 0 512C0 794.77 229.23 1024 512 1024Z" fill="#73ADA4"/>
<path d="M516.42 510.77L641.08 438.13V582.43C641.08 585.37 639.08 587.34 637.15 589.3L516.42 659C514.42 660 511.51 660 508.57 659L387.83 589.3C386.652 588.575 385.675 587.567 384.988 586.366C384.302 585.166 383.927 583.813 383.9 582.43V438.13L508.56 510.77C510.53 511.75 513.47 511.75 516.42 510.77ZM759.85 389.06V635.44C759.85 641.33 758.85 647.22 755.92 652.13C753.036 656.977 748.987 661.026 744.14 663.91L529.14 787.59C518.34 793.48 505.58 793.48 495.77 787.59L280.77 663.91C276.319 661.206 272.555 657.51 269.77 653.11H269.01C265.914 648.084 264.218 642.322 264.1 636.42V389.06C264.1 377.28 270.97 366.48 280.79 360.59L495.79 235.93C500.7 233.93 506.59 232 512.48 232L513.32 233.06C518.59 233.25 523.79 234.26 528.19 236.9L743.19 360.58C748.037 363.463 752.086 367.513 754.97 372.36C758.057 377.392 759.742 383.158 759.85 389.06ZM699 619.73C701 616.79 701.95 611.88 701.95 607.95V417.52C701.95 408.69 697.04 399.85 689.19 395.92L524.27 300.71C520.43 298.889 516.248 297.903 512 297.82C507.743 297.809 503.543 298.799 499.74 300.71L334.82 395.93C326.97 400.84 322.06 408.69 322.06 417.53V607C322.097 611.605 323.06 616.155 324.89 620.38L325.99 619.76C327.871 623.602 330.977 626.709 334.82 628.59L500.71 723.8C504.509 725.738 508.714 726.749 512.98 726.749C517.245 726.749 521.45 725.738 525.25 723.8L690.16 628.59C694.01 626.703 697.121 623.585 699 619.73Z" fill="white"/>
</g>
<defs>
<clipPath id="clip0_2_3687">
<rect width="1024" height="1024" fill="white"/>
</clipPath>
</defs>
</svg>

<svg xmlns="http://www.w3.org/2000/svg" viewBox="0 0 1024 1024">
   <circle cx="512" cy="512" r="512" style="fill:#009688"/>
   <path d="m516.42 510.77 124.66-72.64v144.3c0 2.94-2 4.91-3.93 6.87L516.42 659c-2 1-4.91 1-7.85 0l-120.74-69.7a8.26 8.26 0 0 1-3.93-6.87v-144.3l124.66 72.64c1.97.98 4.91.98 7.86 0Zm243.43-121.71v246.38c0 5.89-1 11.78-3.93 16.69a33.84 33.84 0 0 1-11.78 11.78l-215 123.68c-10.8 5.89-23.56 5.89-33.37 0l-215-123.68a33.77 33.77 0 0 1-11-10.8h-.76a33.09 33.09 0 0 1-4.91-16.69V389.06c0-11.78 6.87-22.58 16.69-28.47l215-124.66c4.91-2 10.8-3.93 16.69-3.93l.84 1.06c5.27.19 10.47 1.2 14.87 3.84l215 123.68a33.83 33.83 0 0 1 11.78 11.78 33.09 33.09 0 0 1 4.88 16.7ZM699 619.73c2-2.94 2.95-7.85 2.95-11.78V417.52c0-8.83-4.91-17.67-12.76-21.6l-164.92-95.21a30 30 0 0 0-12.27-2.89 27.15 27.15 0 0 0-12.26 2.89l-164.92 95.22c-7.85 4.91-12.76 12.76-12.76 21.6V607a34.37 34.37 0 0 0 2.83 13.38l1.1-.62a19.26 19.26 0 0 0 8.83 8.83l165.89 95.21a27 27 0 0 0 24.54 0l164.91-95.21a19.26 19.26 0 0 0 8.84-8.86Z" style="fill:#fff"/>
</svg>
